X: 1
T: American Beauty
C: Steve Wyrick 4,6/02
S: Unpublished
S: Steve Wyrick  scots-l 2002-7-4
Z: This abc transcription is for personal use only,
Z: provided this notice remains attached.
Z: All rights reserved, Steve Wyrick 
L: 1/8
M: C
K: A
E3/C/ \
| A,2 C3/E/ A2 Ac \
| BG AF E3E \
| F2 D3/F/ E2 C3/E/ \
| ^D2 F3/A/ G/E3/ E3/C/ |
| A,2 C3/E/ A2 Ac \
| BG AF E3E \
| F2 D3/F/ E2 C3/E/ \
| DB, E3/D/ C/A,3/ A,2 ||
| [e2A2] [e2A] c/A3/ A2 \
| E/F/G/A/ B3/A/ G/E3/ E2 \
| D2 A3/F/ E/D/C/B,/ A,C \
| B,^DFA G/E3/ E2 |
| [e2A2] [e2A2] c/A3/ A2 \
| E/F/G/A/ B3/A/ G/E3/ E2 \
| D2 A3/F/ (3Eec (3AEC \
| DB, E3/D/ C/A,3/ A,2 |]
